X:255
T:score56
L:1/16
Q:1/4=96
M:2/4
I:linebreak $
K:Emin
!p! z BcB eBcB | gBcB eBcB | g2f2- f/e/f/e/^d2 | eBcB gBcB | AABA fABA |$ GGAG eGAG | FFGF dFGF | %7
 EEFE cEFE | ^D2E2 F/E/FG2 | F8 |] %10
